Yaru++/apps/scalable/staruml.svg

<svg enable-background="new" height="256" viewBox="0 0 256 256" width="256" xmlns="http://www.w3.org/2000/svg" xmlns:xlink="http://www.w3.org/1999/xlink">
  <filter id="filter910" color-interpolation-filters="sRGB" height="1.024099" width="1.023902" x="-.011951" y="-.012049">
    <feGaussianBlur stdDeviation="1.135353"/>
  </filter>
  <filter id="filter936" color-interpolation-filters="sRGB" height="1.096395" width="1.095609" x="-.047804" y="-.048197">
    <feGaussianBlur stdDeviation="4.5414121"/>
  </filter>
  <g transform="translate(0 -44)">
    <path d="m129.79414 58.375492-35.569335 72.601838-78.738805 11.44891 57.813093 55.63821-14.413016 86.45226 70.319623-45.28669 69.99755 37.37444-13.43493-78.96344 57.71767-55.14719-78.64338-11.93994z" filter="url(#filter936)" opacity=".1"/>
    <path d="m129.79414 58.375492-35.569335 72.601838-78.738805 11.44891 57.813093 55.63821-14.413016 86.45226 70.319623-45.28669 69.99755 37.37444-13.43493-78.96344 57.71767-55.14719-78.64338-11.93994z" filter="url(#filter910)" opacity=".1"/>
    <path d="m129.79414 58.375492-35.569335 72.601838-78.738805 11.44891 57.813093 55.63821-14.413016 86.45226 70.319623-45.28669 69.99755 37.37444-13.43493-78.96344 57.71767-55.14719-78.64338-11.93994z" opacity=".1"/>
    <path d="m128.68296 180.42318 55.65957 17.51839-.0482-.29357 56.70565-54.17893z" fill="#9a9996"/>
    <path d="m129.302 60.825358s-.68556 119.871042-.61904 119.597822l35.05392-48.68507z" fill="#a51d2d"/>
    <path d="m128.68296 180.42318.0415 58.08474 68.76871 36.71851c-22.18175-32.10971-68.81023-94.80325-68.81023-94.80325z" fill="#613583"/>
    <path d="m128.68296 180.42318 68.81023 94.80325-13.19883-77.5785z" fill="#c0bfbc"/>
    <path d="m129.302 60.825358-34.945037 71.329042 34.325997 48.26878c0-.4163.61904-119.597822.61904-119.597822z" fill="#e5a50a"/>
    <path d="m163.73688 131.73811c-12.43739 15.45-35.05392 48.68507-35.05392 48.68507l112.31704-36.95411z" fill="#ed333b"/>
    <path d="m128.68296 180.42318-54.931634 17.93468.04818-.29358-56.799506-54.66266z" fill="#f5c211"/>
    <path d="m128.68296 180.42318-69.043759 102.57682 14.160286-84.93578z" fill="#f8e45c"/>
    <path d="m94.356963 132.1544 34.325997 48.26878-111.68296-37.02156z" fill="#f8e45c"/>
    <path d="m128.68296 180.42318.0415 58.08474-69.085274 44.49208z" fill="#c061cb"/>
    <g transform="translate(0 44)">
      <path d="m129.30273 16.826172-34.945308 71.328125-77.357422 11.248047 1.804688 1.738276 75.552734-10.986323 34.945308-71.328125 34.4336 70.912109 75.45703 11.457029 1.80664-1.72656-77.26367-11.730469zm55.28516 138.542968-.29297.2793 12.82422 75.3789.375.19922zm-111.076171.41797-13.873047 83.21289.373047-.24023 13.787109-82.69532z" fill="#fffefc" opacity=".3"/>
      <path d="m18.804688 99.140625-1.804688.261719 56.511719 54.384766.287109-1.72266zm220.388672.054687-54.89844 52.453128.29297 1.7207 56.41211-53.90039zm-110.46875 93.312498-68.712891 44.25196-.373047 2.24023 69.085938-44.49219 68.76953 36.71875-.375-2.19922z" fill="#020202" opacity=".2"/>
    </g>
  </g>
</svg>

<?xml version="1.0" encoding="UTF-8" standalone="no"?>
<svg
   xmlns:dc="http://purl.org/dc/elements/1.1/"
   xmlns:cc="http://creativecommons.org/ns#"
   xmlns:rdf="http://www.w3.org/1999/02/22-rdf-syntax-ns#"
   xmlns:svg="http://www.w3.org/2000/svg"
   xmlns="http://www.w3.org/2000/svg"
   xmlns:xlink="http://www.w3.org/1999/xlink"
   xmlns:sodipodi="http://sodipodi.sourceforge.net/DTD/sodipodi-0.dtd"
   xmlns:inkscape="http://www.inkscape.org/namespaces/inkscape"
   width="256"
   height="256"
   version="1.0"
   viewBox="0 0 256 256"
   style="enable-background:new"
   id="svg40"
   sodipodi:docname="R.svg"
   inkscape:version="0.92.4 (5da689c313, 2019-01-14)">
  <metadata
     id="metadata44">
    <rdf:RDF>
      <cc:Work
         rdf:about="">
        <dc:format>image/svg+xml</dc:format>
        <dc:type
           rdf:resource="http://purl.org/dc/dcmitype/StillImage" />
        <dc:title>
  Adwaita Icon Template
 </dc:title>
      </cc:Work>
    </rdf:RDF>
  </metadata>
  <sodipodi:namedview
     pagecolor="#ffffff"
     bordercolor="#666666"
     borderopacity="1"
     objecttolerance="10"
     gridtolerance="10"
     guidetolerance="10"
     inkscape:pageopacity="0"
     inkscape:pageshadow="2"
     inkscape:window-width="1920"
     inkscape:window-height="1016"
     id="namedview42"
     showgrid="false"
     inkscape:zoom="3.7763085"
     inkscape:cx="129"
     inkscape:cy="191.64145"
     inkscape:window-x="0"
     inkscape:window-y="27"
     inkscape:window-maximized="1"
     inkscape:current-layer="layer9" />
  <title
     id="title4162">
  Adwaita Icon Template
 </title>
  <defs
     id="defs24">
    <linearGradient
       id="linearGradient1007"
       x1="160.30499"
       x2="161.33"
       y1="240.13901"
       y2="135.57899"
       gradientTransform="matrix(0.54625232,0,0,0.54625232,-6.0941965,-68.413544)"
       gradientUnits="userSpaceOnUse"
       xlink:href="#linearGradient1018" />
    <linearGradient
       id="linearGradient1018">
      <stop
         id="stop2"
         offset="0"
         style="stop-color:#37a6e6" />
      <stop
         id="stop4"
         offset="1"
         style="stop-color:#1a7fd4" />
    </linearGradient>
    <filter
       style="color-interpolation-filters:sRGB"
       id="filter925"
       width="1.046"
       height="1.05"
       x="-0.02"
       y="-0.029999999">
      <feGaussianBlur
         id="feGaussianBlur2"
         stdDeviation="2.32" />
    </filter>
    <filter
       style="color-interpolation-filters:sRGB"
       id="filter931"
       width="1.023"
       height="1.025"
       x="-0.0099999998"
       y="-0.0099999998">
      <feGaussianBlur
         id="feGaussianBlur5"
         stdDeviation="1.16" />
    </filter>
    <linearGradient
       id="linearGradient1108"
       x1="296"
       x2="296"
       y1="-212"
       y2="236"
       gradientUnits="userSpaceOnUse">
      <stop
         id="stop8"
         offset="0"
         style="stop-color:#ffffff" />
      <stop
         id="stop10"
         offset=".125"
         style="stop-color:#ffffff;stop-opacity:.09803922" />
      <stop
         id="stop12"
         offset=".925"
         style="stop-color:#000000;stop-opacity:.09803922" />
      <stop
         id="stop14"
         offset="1"
         style="stop-color:#000000;stop-opacity:.49803922" />
    </linearGradient>
    <clipPath
       id="clipPath1082-3">
      <path
         d="M 361.9375,-212 C 507.2348,-212 528,-191.28677 528,-46.125 V 70.125 C 528,215.28618 507.2348,236 361.9375,236 H 214.0625 C 68.7652,236 48,215.28618 48,70.125 V -46.125 C 48,-191.28677 68.7652,-212 214.0625,-212 Z"
         style="fill:#8c59d9"
         id="path16"
         inkscape:connector-curvature="0" />
    </clipPath>
    <linearGradient
       id="linearGradient1053-2"
       x1="384"
       x2="416"
       y1="120"
       y2="120"
       gradientTransform="translate(0,640)"
       gradientUnits="userSpaceOnUse"
       xlink:href="#linearGradient1458" />
    <linearGradient
       id="linearGradient1458">
      <stop
         style="stop-color:#deddda"
         id="stop1452"
         offset="0" />
      <stop
         id="stop1454"
         offset=".511"
         style="stop-color:#ffffff" />
      <stop
         style="stop-color:#c0bfbc"
         id="stop1456"
         offset="1" />
    </linearGradient>
    <linearGradient
       id="a">
      <stop
         stop-color="#68676b"
         offset="0"
         id="stop2-36" />
      <stop
         stop-color="#424048"
         offset=".8"
         id="stop4-7" />
      <stop
         stop-color="#241f31"
         offset="1"
         id="stop6" />
    </linearGradient>
    <radialGradient
       xlink:href="#a"
       gradientUnits="userSpaceOnUse"
       gradientTransform="matrix(1.34416,6e-4,-6.2e-4,1.38763,-121.22,-718.103)"
       fy="446.483"
       fx="279.422"
       r="224"
       cy="446.483"
       cx="279.422"
       id="d" />
    <linearGradient
       xlink:href="#b"
       gradientUnits="userSpaceOnUse"
       gradientTransform="matrix(1.0015,0,0,0.99993,72.09,56.015)"
       y2="234"
       y1="234"
       x2="-60"
       x1="43.844002"
       id="e" />
    <linearGradient
       id="b">
      <stop
         stop-color="#d5d3cf"
         offset="0"
         id="stop11" />
      <stop
         stop-color="#e3e2df"
         offset=".038"
         id="stop13" />
      <stop
         stop-color="#c0bfbc"
         offset=".077"
         id="stop15" />
      <stop
         stop-color="#c0bfbc"
         offset=".923"
         id="stop17" />
      <stop
         stop-color="#e3e2df"
         offset=".962"
         id="stop19" />
      <stop
         stop-color="#d5d3cf"
         offset="1"
         id="stop21" />
    </linearGradient>
    <clipPath
       clipPathUnits="userSpaceOnUse"
       id="clipPath1082-3-5">
      <path
         id="path19"
         style="fill:#8c59d9"
         d="M 361.9375,-212 C 507.2348,-212 528,-191.28677 528,-46.125 V 70.125 C 528,215.28618 507.2348,236 361.9375,236 H 214.0625 C 68.7652,236 48,215.28618 48,70.125 V -46.125 C 48,-191.28677 68.7652,-212 214.0625,-212 Z"
         inkscape:connector-curvature="0" />
    </clipPath>
    <linearGradient
       xlink:href="#linearGradient4360"
       gradientUnits="userSpaceOnUse"
       y2="488"
       y1="88"
       x2="488"
       x1="88"
       id="linearGradient4358" />
    <linearGradient
       id="linearGradient4360">
      <stop
         style="stop-color:#000000;stop-opacity:0.58823532"
         offset="0"
         id="stop4362" />
      <stop
         style="stop-color:#000000;stop-opacity:0.20555556"
         offset="1"
         id="stop4366" />
    </linearGradient>
    <filter
       y="-0.039999999"
       x="-0.050000001"
       height="1.0880001"
       width="1.1059999"
       id="filter4380"
       style="color-interpolation-filters:sRGB">
      <feGaussianBlur
         stdDeviation="8.48"
         id="feGaussianBlur4382" />
    </filter>
    <filter
       y="-0.0099999998"
       x="-0.0099999998"
       height="1.022"
       width="1.026"
       id="filter4346"
       style="color-interpolation-filters:sRGB">
      <feGaussianBlur
         stdDeviation="2.12"
         id="feGaussianBlur4348" />
    </filter>
    <linearGradient
       gradientUnits="userSpaceOnUse"
       y2="288.91199"
       y1="235.54201"
       x2="62.07"
       x1="6.2350001"
       id="linearGradient1559"
       gradientTransform="matrix(3.7797136,0,0,3.7797136,-284.01549,-843.53085)">
      <stop
         id="stop8-3"
         offset="0"
         style="stop-color:#62237c;stop-opacity:1" />
      <stop
         id="stop14-5"
         offset="0.498"
         style="stop-color:#c43ac4;stop-opacity:1" />
      <stop
         id="stop20"
         offset="1"
         style="stop-color:#fb7c38;stop-opacity:1" />
    </linearGradient>
    <filter
       inkscape:collect="always"
       style="color-interpolation-filters:sRGB"
       id="filter910"
       x="-0.011951085"
       width="1.0239022"
       y="-0.012049317"
       height="1.0240986">
      <feGaussianBlur
         inkscape:collect="always"
         stdDeviation="1.135353"
         id="feGaussianBlur912" />
    </filter>
    <filter
       inkscape:collect="always"
       style="color-interpolation-filters:sRGB"
       id="filter936"
       x="-0.04780434"
       width="1.0956087"
       y="-0.048197268"
       height="1.0963945">
      <feGaussianBlur
         inkscape:collect="always"
         stdDeviation="4.5414121"
         id="feGaussianBlur938" />
    </filter>
  </defs>
  <g
     id="layer1"
     transform="translate(0,-44)">
    <g
       id="layer9">
      <path
         style="fill:#000000;fill-opacity:1;stroke:none;stroke-width:2.75601959;enable-background:new;opacity:0.1;filter:url(#filter936)"
         d="M 129.79414,58.375492 94.224805,130.97733 15.486,142.42624 l 57.813093,55.63821 -14.413016,86.45226 70.319623,-45.28669 69.99755,37.37444 -13.43493,-78.96344 57.71767,-55.14719 -78.64338,-11.93994 z"
         id="path914"
         inkscape:connector-curvature="0" />
      <path
         inkscape:connector-curvature="0"
         id="path904"
         d="M 129.79414,58.375492 94.224805,130.97733 15.486,142.42624 l 57.813093,55.63821 -14.413016,86.45226 70.319623,-45.28669 69.99755,37.37444 -13.43493,-78.96344 57.71767,-55.14719 -78.64338,-11.93994 z"
         style="fill:#000000;fill-opacity:1;stroke:none;stroke-width:2.75601959;enable-background:new;opacity:0.1;filter:url(#filter910)" />
      <path
         style="fill:#000000;fill-opacity:1;stroke:none;stroke-width:2.75601959;enable-background:new;opacity:0.1"
         d="M 129.79414,58.375492 94.224805,130.97733 15.486,142.42624 l 57.813093,55.63821 -14.413016,86.45226 70.319623,-45.28669 69.99755,37.37444 -13.43493,-78.96344 57.71767,-55.14719 -78.64338,-11.93994 z"
         id="path872"
         inkscape:connector-curvature="0" />
      <path
         d="m 128.68296,180.42318 55.65957,17.51839 -0.0482,-0.29357 56.70565,-54.17893 z"
         style="fill:#9a9996;fill-opacity:1;stroke:none;stroke-width:2.7076683;enable-background:new"
         id="path59"
         inkscape:connector-curvature="0"
         sodipodi:nodetypes="ccccc" />
      <path
         d="m 129.302,60.825358 c 0,0 -0.68556,119.871042 -0.61904,119.597822 l 35.05392,-48.68507 z"
         style="fill:#a51d2d;fill-opacity:1;stroke:none;stroke-width:2.7076683;enable-background:new"
         id="path61"
         inkscape:connector-curvature="0"
         sodipodi:nodetypes="cccc" />
      <path
         d="m 128.68296,180.42318 0.0415,58.08474 68.76871,36.71851 c -22.18175,-32.10971 -68.81023,-94.80325 -68.81023,-94.80325 z"
         style="fill:#613583;fill-opacity:1;stroke:none;stroke-width:2.7076683;enable-background:new"
         id="path63"
         inkscape:connector-curvature="0"
         sodipodi:nodetypes="cccc" />
      <path
         d="m 128.68296,180.42318 68.81023,94.80325 -13.19883,-77.5785 z"
         style="fill:#c0bfbc;fill-opacity:1;stroke:none;stroke-width:2.7076683;enable-background:new"
         id="path65"
         inkscape:connector-curvature="0"
         sodipodi:nodetypes="cccc" />
      <path
         d="M 129.302,60.825358 94.356963,132.1544 128.68296,180.42318 c 0,-0.4163 0.61904,-119.597822 0.61904,-119.597822 z"
         style="fill:#e5a50a;fill-opacity:1;stroke:none;stroke-width:2.7076683;enable-background:new"
         id="path67"
         inkscape:connector-curvature="0"
         sodipodi:nodetypes="cccc" />
      <path
         d="m 163.73688,131.73811 c -12.43739,15.45 -35.05392,48.68507 -35.05392,48.68507 L 241,143.46907 Z"
         style="fill:#ed333b;fill-opacity:1;stroke:none;stroke-width:2.7076683;enable-background:new"
         id="path69"
         inkscape:connector-curvature="0"
         sodipodi:nodetypes="cccc" />
      <path
         d="m 128.68296,180.42318 v 0 l -54.931634,17.93468 0.04818,-0.29358 L 17,143.40162 Z"
         style="fill:#f5c211;fill-opacity:1;stroke:none;stroke-width:2.7076683;enable-background:new"
         id="path71"
         inkscape:connector-curvature="0"
         sodipodi:nodetypes="cccccc" />
      <path
         d="M 128.68296,180.42318 59.639201,283 73.799487,198.06422 Z"
         style="fill:#f8e45c;fill-opacity:1;stroke:none;stroke-width:2.7076683;enable-background:new"
         id="path73"
         inkscape:connector-curvature="0"
         sodipodi:nodetypes="cccc" />
      <path
         d="m 94.356963,132.1544 34.325997,48.26878 v 0 L 17,143.40162 Z"
         style="fill:#f8e45c;fill-opacity:1;stroke:none;stroke-width:2.7076683;enable-background:new"
         id="path75"
         inkscape:connector-curvature="0"
         sodipodi:nodetypes="ccccc" />
      <path
         d="m 128.68296,180.42318 0.0415,58.08474 L 59.639186,283 Z"
         style="fill:#c061cb;fill-opacity:1;stroke:none;stroke-width:2.7076683;enable-background:new"
         id="path77"
         inkscape:connector-curvature="0"
         sodipodi:nodetypes="cccc" />
      <path
         style="fill:#fffefc;fill-opacity:1;stroke:none;stroke-width:2.7076683;enable-background:new;opacity:0.3"
         d="M 129.30273 16.826172 L 94.357422 88.154297 L 17 99.402344 L 18.804688 101.14062 L 94.357422 90.154297 L 129.30273 18.826172 L 163.73633 89.738281 L 239.19336 101.19531 L 241 99.46875 L 163.73633 87.738281 L 129.30273 16.826172 z M 184.58789 155.36914 L 184.29492 155.64844 L 197.11914 231.02734 L 197.49414 231.22656 L 184.58789 155.36914 z M 73.511719 155.78711 L 59.638672 239 L 60.011719 238.75977 L 73.798828 156.06445 L 73.511719 155.78711 z "
         transform="translate(0,44)"
         id="path894" />
      <path
         style="fill:#020202;fill-opacity:1;stroke:none;stroke-width:2.7076683;enable-background:new;opacity:0.2"
         d="M 18.804688 99.140625 L 17 99.402344 L 73.511719 153.78711 L 73.798828 152.06445 L 18.804688 99.140625 z M 239.19336 99.195312 L 184.29492 151.64844 L 184.58789 153.36914 L 241 99.46875 L 239.19336 99.195312 z M 128.72461 192.50781 L 60.011719 236.75977 L 59.638672 239 L 128.72461 194.50781 L 197.49414 231.22656 L 197.11914 229.02734 L 128.72461 192.50781 z "
         transform="translate(0,44)"
         id="path899" />
    </g>
  </g>
</svg>
